X: 190
T:Major Mackie
% Nottingham Music Database
S:Kevin Briggs, via EF
Y:AB
M:6/8
K:D
P:A
A|"D"ABc dcd|"G"B2e e2d|"A7"c2a a^ga|"D"f2d "A7"dcB|
"D"ABc "D/f+"dcd|"G"B2e "E7/g+"e2d|"A7"c2a "A7/g"gfe|"D/f+"d3 "A/e"d2:|
P:B
d/2e/2|"D"f2f def|"G"g2g g2f|"A7"e2e cde|"D"f3 "A/c+"a2f|
"Bm"ddd "Bm/a"def|"Em/g"g2B "E7/g+"e2d|"A7"c2a gfe|"D"d3 d2:|


